assets/img/components/badge-header.svg

<svg xmlns="http://www.w3.org/2000/svg" width="583" height="145" fill="none" viewBox="0 0 583 145"><path fill="#286ad8" d="M510.144 145c40.04 0 72.5-32.459 72.5-72.5S550.184 0 510.144 0s-72.5 32.46-72.5 72.5 32.459 72.5 72.5 72.5M0 145V0h72.335C112.467 0 145 32.46 145 72.5S112.467 145 72.335 145z"/><path fill="#286ad8" d="M399.879 0c21.773 0 39.424 17.853 39.424 39.875V145H183.424C161.651 145 144 127.147 144 105.125V0z"/><path fill="#1545bb" fill-rule="evenodd" d="M304.025 91.96c3.535 0 6.71 1.607 8.943 4.161q.36.351.694.733.362.35.695.733.362.351.695.732.362.353.695.734.36.351.694.732.361.352.696.734.36.351.694.732.362.352.695.732.362.352.695.733.36.352.694.733.362.351.695.733.361.351.695.733a13 13 0 0 1 .695.732q.361.353.694.734.362.352.696.732.36.352.694.733.36.352.694.733.361.351.696.733.36.351.694.733.362.352.695.732.361.352.695.733.361.352.695.733.36.351.694.733.361.352.696.733.36.352.694.732.36.352.694.733.362.352.696.733.36.352.694.733.362.351.695.733a13 13 0 0 1 .695.732q.361.352.695.734.36.351.694.732.361.352.696.734.36.351.694.732.36.352.694.733.362.351.695.733.362.352.695.732.362.352.695.734.361.351.694.732.362.352.695.733.361.351.695.733.36.352.694.732.362.352.696.734.36.351.694.732.362.352.695.733.361.352.695.733a13 13 0 0 1 .695.732q.36.352.694.733.361.352.696.733.36.352.694.734.36.351.694.732.361.352.696.733.36.351.694.732.362.352.695.733.362.352.695.733.361.352.695.733.36.352.694.733.362.352.696.733.36.352.694.732.361.353.694.734.361.352.696.732.36.352.694.733.361.352.694.733.361.352.696.732a13 13 0 0 1 1.658 1.979H246.676a12 12 0 0 1-.339-.372q-.36-.352-.694-.732a13 13 0 0 1-.696-.734q-.36-.352-.694-.732a12 12 0 0 1-.695-.734 12 12 0 0 1-.695-.732q-.361-.352-.695-.734a13 13 0 0 1-.694-.732 13 13 0 0 1-.696-.733q-.36-.352-.694-.733a13 13 0 0 1-.694-.732 13 13 0 0 1-.696-.734 13 13 0 0 1-.694-.732 13 13 0 0 1-.694-.732 13 13 0 0 1-.696-.734 13 13 0 0 1-.694-.732 12 12 0 0 1-.695-.734 13 13 0 0 1-.695-.732 13 13 0 0 1-.695-.732q-.361-.353-.694-.734a12 12 0 0 1-.695-.732q-.36-.352-.695-.734a13 13 0 0 1-.694-.732 13 13 0 0 1-.696-.734 13 13 0 0 1-.694-.732 13 13 0 0 1-.695-.733 13 13 0 0 1-.695-.733q-.36-.351-.695-.732-.36-.351-.694-.733a13 13 0 0 1-.696-.733q-.36-.352-.694-.732a12 12 0 0 1-.695-.734 13 13 0 0 1-.695-.732 13 13 0 0 1-.694-.734q-.361-.351-.695-.732a12 12 0 0 1-.694-.733 13 13 0 0 1-.696-.733q-.36-.352-.694-.732a12 12 0 0 1-.694-.734 13 13 0 0 1-.696-.732q-.36-.352-.694-.734a12 12 0 0 1-.695-.732c-2.441-2.381-3.983-5.794-3.983-9.598 0-7.194 5.477-13.026 12.231-13.026z" clip-rule="evenodd" opacity=".4" style="mix-blend-mode:multiply"/><path fill="#5187df" d="M304.192 91.959h-78.094c-6.754 0-12.229 5.831-12.229 13.026s5.475 13.026 12.229 13.026h78.094c6.754 0 12.23-5.832 12.23-13.026 0-7.195-5.476-13.026-12.23-13.026"/><path fill="#1545bb" d="M244.74 104.987c0-1.302 1-2.357 2.234-2.357h52.031c1.234 0 2.234 1.055 2.234 2.357 0 1.301-1 2.356-2.234 2.356h-52.031c-1.234 0-2.234-1.055-2.234-2.356"/><ellipse cx="232.935" cy="104.987" fill="#1545bb" rx="6.91" ry="6.911"/></svg>

<svg width="583" height="145" viewBox="0 0 583 145" fill="none" xmlns="http://www.w3.org/2000/svg">
<path d="M510.144 145C550.184 145 582.644 112.541 582.644 72.5C582.644 32.4594 550.184 0 510.144 0C470.103 0 437.644 32.4594 437.644 72.5C437.644 112.541 470.103 145 510.144 145Z" fill="#286AD8"/>
<path d="M0 145L0 -0.000152588L72.3354 -0.000152588C112.467 -0.000152588 145 32.4592 145 72.4999C145 112.541 112.467 145 72.3354 145L0 145Z" fill="#286AD8"/>
<path d="M399.879 0C421.652 0.000287751 439.303 17.8526 439.303 39.875V145H183.424C161.651 145 144 127.147 144 105.125V0H399.879Z" fill="#286AD8"/>
<g style="mix-blend-mode:multiply" opacity="0.4">
<path fill-rule="evenodd" clip-rule="evenodd" d="M304.025 91.96C307.56 91.9602 310.735 93.5669 312.968 96.1211C313.208 96.3557 313.44 96.5993 313.662 96.8535C313.903 97.0884 314.135 97.3324 314.357 97.5869C314.598 97.8215 314.83 98.0651 315.052 98.3193C315.293 98.5541 315.525 98.7983 315.747 99.0527C315.987 99.2873 316.219 99.531 316.441 99.7852C316.682 100.02 316.914 100.264 317.137 100.519C317.377 100.753 317.609 100.997 317.831 101.251C318.072 101.486 318.304 101.729 318.526 101.983C318.767 102.218 318.999 102.462 319.221 102.716C319.461 102.951 319.693 103.195 319.915 103.449C320.156 103.684 320.388 103.927 320.61 104.182C320.851 104.416 321.082 104.661 321.305 104.915C321.545 105.15 321.778 105.393 322 105.647C322.241 105.882 322.472 106.127 322.694 106.381C322.935 106.616 323.167 106.859 323.39 107.113C323.63 107.348 323.862 107.592 324.084 107.846C324.324 108.08 324.556 108.325 324.778 108.579C325.019 108.814 325.251 109.057 325.474 109.312C325.714 109.546 325.946 109.791 326.168 110.045C326.409 110.28 326.641 110.523 326.863 110.777C327.104 111.012 327.335 111.256 327.558 111.51C327.798 111.745 328.031 111.989 328.253 112.243C328.493 112.478 328.725 112.721 328.947 112.976C329.188 113.21 329.42 113.455 329.643 113.709C329.883 113.944 330.115 114.187 330.337 114.441C330.577 114.676 330.809 114.92 331.031 115.174C331.272 115.409 331.504 115.653 331.727 115.907C331.967 116.142 332.199 116.385 332.421 116.64C332.662 116.874 332.894 117.119 333.116 117.373C333.357 117.608 333.588 117.851 333.811 118.105C334.051 118.34 334.284 118.584 334.506 118.839C334.746 119.073 334.978 119.317 335.2 119.571C335.441 119.806 335.673 120.05 335.896 120.305C336.136 120.539 336.368 120.783 336.59 121.037C336.83 121.272 337.062 121.515 337.284 121.77C337.525 122.004 337.757 122.249 337.979 122.503C338.22 122.738 338.452 122.981 338.674 123.235C338.915 123.47 339.147 123.714 339.369 123.969C339.61 124.203 339.841 124.447 340.063 124.701C340.304 124.936 340.536 125.179 340.758 125.434C340.998 125.668 341.231 125.913 341.453 126.167C341.693 126.402 341.925 126.645 342.147 126.899C342.388 127.134 342.62 127.378 342.843 127.633C343.083 127.867 343.315 128.111 343.537 128.365C343.778 128.6 344.01 128.843 344.232 129.098C344.473 129.332 344.704 129.577 344.927 129.831C345.167 130.066 345.4 130.309 345.622 130.563C345.862 130.798 346.094 131.042 346.316 131.296C346.557 131.531 346.789 131.775 347.012 132.029C347.252 132.264 347.484 132.508 347.706 132.763C347.946 132.997 348.178 133.241 348.4 133.495C348.641 133.73 348.873 133.973 349.096 134.228C349.336 134.462 349.568 134.706 349.79 134.96C350.031 135.195 350.263 135.439 350.485 135.693C350.726 135.928 350.958 136.172 351.18 136.426C351.42 136.661 351.653 136.905 351.875 137.159C352.115 137.394 352.347 137.637 352.569 137.892C352.81 138.126 353.042 138.371 353.265 138.625C353.505 138.86 353.737 139.103 353.959 139.357C354.2 139.592 354.431 139.837 354.653 140.091C354.894 140.326 355.126 140.569 355.349 140.823C355.589 141.058 355.821 141.302 356.043 141.556C356.284 141.79 356.515 142.035 356.737 142.289C356.978 142.524 357.21 142.767 357.433 143.021C358.045 143.619 358.602 144.282 359.091 145H246.676C246.561 144.879 246.447 144.754 246.337 144.628C246.097 144.393 245.865 144.15 245.643 143.896C245.402 143.661 245.17 143.417 244.947 143.162C244.707 142.927 244.475 142.684 244.253 142.43C244.012 142.195 243.78 141.951 243.558 141.696C243.317 141.462 243.085 141.218 242.863 140.964C242.623 140.729 242.39 140.485 242.168 140.23C241.928 139.996 241.696 139.752 241.474 139.498C241.233 139.263 241.001 139.019 240.778 138.765C240.538 138.53 240.306 138.286 240.084 138.032C239.844 137.798 239.612 137.554 239.39 137.3C239.149 137.065 238.917 136.821 238.694 136.566C238.454 136.332 238.222 136.088 238 135.834C237.759 135.599 237.528 135.356 237.306 135.102C237.065 134.867 236.833 134.623 236.61 134.368C236.37 134.134 236.138 133.89 235.916 133.636C235.675 133.401 235.443 133.157 235.221 132.902C234.98 132.668 234.749 132.424 234.526 132.17C234.286 131.935 234.053 131.692 233.831 131.438C233.59 131.203 233.359 130.958 233.137 130.704C232.896 130.47 232.664 130.226 232.442 129.972C232.202 129.737 231.97 129.493 231.747 129.238C231.507 129.004 231.275 128.76 231.053 128.506C230.812 128.271 230.58 128.027 230.357 127.772C230.117 127.538 229.885 127.294 229.663 127.04C229.422 126.805 229.19 126.561 228.968 126.307C228.727 126.072 228.496 125.828 228.273 125.574C228.033 125.34 227.801 125.096 227.578 124.842C227.338 124.607 227.106 124.364 226.884 124.109C226.643 123.875 226.411 123.63 226.188 123.376C225.948 123.141 225.716 122.898 225.494 122.644C225.253 122.409 225.021 122.165 224.799 121.91C224.558 121.676 224.327 121.432 224.104 121.178C223.864 120.943 223.633 120.699 223.41 120.444C223.17 120.21 222.937 119.966 222.715 119.712C222.474 119.477 222.243 119.234 222.021 118.979C221.78 118.745 221.548 118.5 221.325 118.246C221.085 118.011 220.853 117.768 220.631 117.514C220.39 117.279 220.159 117.035 219.937 116.78C219.696 116.546 219.464 116.302 219.241 116.048C219.001 115.813 218.769 115.569 218.547 115.314C218.306 115.08 218.074 114.836 217.852 114.582C215.411 112.201 213.869 108.788 213.869 104.984C213.869 97.7904 219.346 91.9582 226.1 91.958L304.025 91.96Z" fill="#1545BB"/>
</g>
<path d="M304.192 91.9585H226.098C219.344 91.9585 213.869 97.7905 213.869 104.985C213.869 112.179 219.344 118.011 226.098 118.011H304.192C310.946 118.011 316.422 112.179 316.422 104.985C316.422 97.7905 310.946 91.9585 304.192 91.9585Z" fill="#5187DF"/>
<path d="M244.74 104.987C244.74 103.685 245.74 102.63 246.974 102.63H299.005C300.239 102.63 301.239 103.685 301.239 104.987C301.239 106.288 300.239 107.343 299.005 107.343H246.974C245.74 107.343 244.74 106.288 244.74 104.987Z" fill="#1545BB"/>
<ellipse cx="232.935" cy="104.987" rx="6.91" ry="6.91121" fill="#1545BB"/>
</svg>
